edushare/edushare/static/bundles/images/books/books3.svg

<svg xmlns="http://www.w3.org/2000/svg" viewBox="0 0 111.4 87.36"><defs><style>.cls-4{fill:#fff;opacity:.5;mix-blend-mode:overlay}.cls-7{fill:#fff1da}.cls-8{fill:#e5d5bd}</style></defs><g style="isolation:isolate"><g id="Слой_2" data-name="Слой 2"><g id="Objects"><path d="M31.37 22.55l-13.79 64.8-2.83-.59-11.68-3.33L17 17.87l11.92 2.19 1.95 1.3a1.15 1.15 0 01.5 1.19z" fill="#ca2b28"/><path d="M14.75 86.76L0 84l13.83-65a1.72 1.72 0 012.05-1.33l13.06 2.43z" fill="#ff393a"/><path class="cls-4" transform="rotate(12.01 20.733 53.182)" d="M20.19 19.08h1.12v68.19h-1.12z"/><path d="M56.82 9.39l-16.6 78-3.41-.71-14.69-4.61L38.9 3.2l15 3.19L56.24 8a1.42 1.42 0 01.58 1.39z" fill="#51b7b7"/><path d="M28.73 3.53h16.83v82H26.75V5.51a2 2 0 012-2z" transform="rotate(12.02 36.142 44.55)" fill="#67d6df"/><path class="cls-4" transform="rotate(12.01 44.034 46.261)" d="M43.36 5.21h1.35v82.05h-1.35z"/><path class="cls-7" transform="rotate(12.01 43.826 8.654)" d="M34.4 7.53h18.81v2.21H34.4z"/><path class="cls-8" d="M56.35 11.59l-.46 2.16-3.12-2.08.46-2.16 3.12 2.08z"/><path class="cls-7" transform="rotate(12.02 42.82 13.115)" d="M33.44 12.04h18.81v2.21H33.44z"/><path class="cls-8" d="M55.38 16.11l-.46 2.16-3.11-2.09.46-2.16 3.11 2.09z"/><path d="M70.64 9.78v77.57h-2.48l-10.88-1V8.13h10.88l1.84.75a1 1 0 01.64.9z" fill="#eabe1f"/><path d="M56.78 8.13h11.38v79.23H54.8V10.11a2 2 0 011.98-1.98z" fill="#ffe12b"/><path class="cls-4" d="M66.72 8.13h.96v79.23h-.96z"/><path d="M88.74 20.88v66.47h-2.9l-12.78-1.16V18.94h12.78l2.18.87a1.15 1.15 0 01.72 1.07z" fill="#651e18"/><path d="M72.13 18.94h13.71v68.42H70.15V20.92a2 2 0 011.98-1.98z" fill="#ac4641"/><path class="cls-4" d="M84.15 18.94h1.13v68.42h-1.13z"/><path d="M111.4 2.48v84.87h-3.71l-16.32-1.5V0h16.32l2.78 1.11a1.49 1.49 0 01.93 1.37z" fill="#5e4d4a"/><path d="M89.64 0h18v87.36h-20V2a2 2 0 012-2z" fill="#6e5c58"/><path class="cls-4" d="M105.53 0h1.44v87.36h-1.44z"/><path class="cls-7" d="M87.66 3.4h20.03v2.35H87.66z"/><path class="cls-8" d="M111.4 4.88v2.35l-3.71-1.48V3.4l3.71 1.48z"/><path class="cls-7" d="M87.66 8.31h20.03v2.35H87.66z"/><path class="cls-8" d="M111.4 9.79v2.35l-3.71-1.48V8.31l3.71 1.48z"/></g></g></g></svg>

<svg xmlns="http://www.w3.org/2000/svg" viewBox="0 0 111.4 87.36"><defs><style>.cls-1{isolation:isolate;}.cls-2{fill:#ca2b28;}.cls-3{fill:#ff393a;}.cls-4{fill:#fff;opacity:0.5;mix-blend-mode:overlay;}.cls-5{fill:#51b7b7;}.cls-6{fill:#67d6df;}.cls-7{fill:#fff1da;}.cls-8{fill:#e5d5bd;}.cls-9{fill:#eabe1f;}.cls-10{fill:#ffe12b;}.cls-11{fill:#651e18;}.cls-12{fill:#ac4641;}.cls-13{fill:#5e4d4a;}.cls-14{fill:#6e5c58;}</style></defs><title>books4</title><g class="cls-1"><g id="Слой_2" data-name="Слой 2"><g id="Objects"><path class="cls-2" d="M31.37,22.55,17.58,87.35l-2.83-.59L3.07,83.43,17,17.87l11.92,2.19,1.95,1.3A1.15,1.15,0,0,1,31.37,22.55Z"/><path class="cls-3" d="M14.75,86.76,0,84,13.83,19a1.72,1.72,0,0,1,2.05-1.33l13.06,2.43Z"/><rect class="cls-4" x="20.19" y="19.08" width="1.12" height="68.19" transform="translate(11.52 -3.15) rotate(12.01)"/><path class="cls-5" d="M56.82,9.39l-16.6,78-3.41-.71L22.12,82.07,38.9,3.2l15,3.19L56.24,8A1.42,1.42,0,0,1,56.82,9.39Z"/><path class="cls-6" d="M28.73,3.53H45.56a0,0,0,0,1,0,0v82a0,0,0,0,1,0,0H26.75a0,0,0,0,1,0,0V5.51a2,2,0,0,1,2-2Z" transform="translate(10.07 -6.55) rotate(12.02)"/><rect class="cls-4" x="43.36" y="5.21" width="1.35" height="82.05" transform="translate(10.59 -8.15) rotate(12.01)"/><rect class="cls-7" x="34.4" y="7.53" width="18.81" height="2.21" transform="translate(2.76 -8.93) rotate(12.01)"/><polygon class="cls-8" points="56.35 11.59 55.89 13.75 52.77 11.67 53.23 9.51 56.35 11.59"/><rect class="cls-7" x="33.44" y="12.04" width="18.81" height="2.21" transform="translate(3.67 -8.63) rotate(12.02)"/><polygon class="cls-8" points="55.38 16.11 54.92 18.27 51.81 16.18 52.27 14.02 55.38 16.11"/><path class="cls-9" d="M70.64,9.78V87.35H68.16l-10.88-1V8.13H68.16L70,8.88A1,1,0,0,1,70.64,9.78Z"/><path class="cls-10" d="M56.78,8.13H68.16a0,0,0,0,1,0,0V87.36a0,0,0,0,1,0,0H54.8a0,0,0,0,1,0,0V10.11A2,2,0,0,1,56.78,8.13Z"/><rect class="cls-4" x="66.72" y="8.13" width="0.96" height="79.23"/><path class="cls-11" d="M88.74,20.88V87.35h-2.9L73.06,86.19V18.94H85.84l2.18.87A1.15,1.15,0,0,1,88.74,20.88Z"/><path class="cls-12" d="M72.13,18.94H85.84a0,0,0,0,1,0,0V87.36a0,0,0,0,1,0,0H70.15a0,0,0,0,1,0,0V20.92A2,2,0,0,1,72.13,18.94Z"/><rect class="cls-4" x="84.15" y="18.94" width="1.13" height="68.42"/><path class="cls-13" d="M111.4,2.48V87.35h-3.71l-16.32-1.5V0h16.32l2.78,1.11A1.49,1.49,0,0,1,111.4,2.48Z"/><path class="cls-14" d="M89.64,0h18a0,0,0,0,1,0,0V87.36a0,0,0,0,1,0,0h-20a0,0,0,0,1,0,0V2A2,2,0,0,1,89.64,0Z"/><rect class="cls-4" x="105.53" width="1.44" height="87.36"/><rect class="cls-7" x="87.66" y="3.4" width="20.03" height="2.35"/><polygon class="cls-8" points="111.4 4.88 111.4 7.23 107.69 5.75 107.69 3.4 111.4 4.88"/><rect class="cls-7" x="87.66" y="8.31" width="20.03" height="2.35"/><polygon class="cls-8" points="111.4 9.79 111.4 12.14 107.69 10.66 107.69 8.31 111.4 9.79"/></g></g></g></svg>
